X: 22
M: C
L: 1/16
K: G
[|\
(G2F2) (E2D2) (c2B2A2) G2 | TE6 D2 E4 G4 ::
(B3A) B2 c2 d6 B2 | (c2B2A2) G2 E4 z4 |
(B3A) B2 c2 d6 c2 | (BcAB) G2 A2 (TB3c) d4 |
(B3A) B2 c2 (d2cBe2) d2 | (c2B2A2) G2 E4 (TB3A) |
(G2F2) (E2D2) (Bcd2) (BAG2) | E6 D2 (E3F) G4 :|
K:

